X:330
T:The Ladies Dressed in Garments so Green
B:Joyce, P. W.; "Old Irish Folk Music and Songs"
R:song air
A:Antrim
O:Irish
H:Mr. M`Kenzie says: "This air was popular in Ballycastle (in Antrim) about 1840
H:and long before that.  I often heard it played on the harp."
L:1/4
M:3/4
K:Eb
G//F//|\
EGB|AGF|EGB|E2 d/e/|cAF|GAB|E2 G/F/|
EGB|AGF|EGB|e2 d/e/|cAF|GAB|E2||d/e/|
f>dB|B>z c/d/|eBG|E>z F/G/|AGA|BGE|F2 G/F/|
EGB|AGF|EGB|e2 d/e/|cAF|GAB|E2||


